src/icons/hds/some/twitter.svg

<svg xmlns="http://www.w3.org/2000/svg" width="24" height="24" viewBox="0 0 24 24">
  <g fill="none" fill-rule="evenodd">
    <rect width="24" height="24"/>
    <path fill="currentColor" d="M19.0714286,3 C20.0854592,3 20.9172741,3.7835277 20.9941951,4.77790504 L21,4.92857143 L21,19.0714286 C21,20.0854592 20.2164723,20.9172741 19.222095,20.9941951 L19.0714286,21 L4.92857143,21 C3.91454082,21 3.08272595,20.2164723 3.00580487,19.222095 L3,19.0714286 L3,4.92857143 C3,3.91454082 3.7835277,3.08272595 4.77790504,3.00580487 L4.92857143,3 L19.0714286,3 Z M14.6915808,6.43652271 C13.1014809,6.43652271 11.8222806,7.72458243 11.8222806,9.30582298 C11.8222806,9.52790979 11.8489408,9.74996925 11.8933472,9.9631693 C9.51265435,9.8387821 7.38954058,8.7017425 5.97709366,6.96062242 C5.7283466,7.38702252 5.58624057,7.87560255 5.58624057,8.40858901 C5.58624057,9.40352258 6.09256677,10.2829557 6.86541354,10.798196 C6.46188852,10.782985 6.07789037,10.6829165 5.73587325,10.5203759 L5.56846706,10.4340032 L5.56846706,10.4695228 C5.56846706,11.8641963 6.55454123,13.0190094 7.86926121,13.2855299 C7.62942824,13.3476825 7.37179442,13.3832295 7.11418795,13.3832295 C6.92762081,13.3832295 6.74996777,13.365456 6.57228739,13.3388231 C6.93650756,14.4758901 7.99362107,15.30203 9.25504787,15.3286903 C8.26900105,16.101537 7.03420717,16.55457 5.69285427,16.55457 C5.45299396,16.55457 5.2309345,16.5456833 4.99996094,16.5190504 C6.27027449,17.3362762 7.78042102,17.8071101 9.40606799,17.8071101 C14.6827488,17.8071101 17.5697952,13.4365227 17.5697952,9.6433829 C17.5697952,9.51902304 17.5697952,9.39463583 17.5609084,9.27027597 C18.1205552,8.86162203 18.6091625,8.35529583 18.9999609,7.78678971 C18.484748,8.00884917 17.9251013,8.16878339 17.347681,8.23093597 C17.9428474,7.8756299 18.3958805,7.31598318 18.6091078,6.64972277 C18.0583205,6.97839592 17.4364939,7.21825624 16.7880343,7.3426161 C16.2639073,6.78296938 15.5177208,6.43652271 14.6915808,6.43652271 Z"/>
  </g>
</svg>

<svg viewBox="0 0 24 24" role="img" xmlns="http://www.w3.org/2000/svg"><g fill="none" fill-rule="evenodd"><path d="M0 0h24v24H0z"/><path d="M19.071 3a1.93 1.93 0 011.923 1.778l.006.15v14.143a1.93 1.93 0 01-1.778 1.923l-.15.006H4.928a1.93 1.93 0 01-1.923-1.778L3 19.072V4.928a1.93 1.93 0 011.778-1.923L4.928 3h14.143zm-4.38 3.437a2.868 2.868 0 00-2.869 2.869c0 .222.027.444.071.657a8.156 8.156 0 01-5.916-3.002c-.249.426-.39.915-.39 1.448 0 .995.506 1.874 1.278 2.39a2.888 2.888 0 01-1.13-.279l-.167-.086v.036a2.87 2.87 0 002.301 2.816c-.24.062-.497.097-.755.097-.186 0-.364-.018-.542-.044a2.874 2.874 0 002.683 1.99 5.746 5.746 0 01-3.562 1.226c-.24 0-.462-.01-.693-.036a8.108 8.108 0 004.406 1.288c5.277 0 8.164-4.37 8.164-8.164 0-.124 0-.248-.01-.373A6.168 6.168 0 0019 7.787a5.752 5.752 0 01-1.652.444 2.862 2.862 0 001.261-1.581 5.65 5.65 0 01-1.821.693 2.862 2.862 0 00-2.096-.906z" fill="currentColor"/></g></svg>
